; generated by PrusaSlicer 2.9.2 on 2025-08-14 at 18:42:03 UTC


;
;
; 

; external perimeters extrusion width = 0.45mm
; perimeters extrusion width = 0.45mm
; infill extrusion width = 0.45mm
; solid infill extrusion width = 0.45mm
; top infill extrusion width = 0.40mm
; first layer extrusion width = 0.42mm

M73 P0 R132
M73 Q0 S146
M201 X1000 Y1000 Z200 E5000 ; sets maximum accelerations, mm/sec^2
M203 X200 Y200 Z12 E120 ; sets maximum feedrates, mm / sec
M204 S1250 T1250 ; sets acceleration (S) and retract acceleration (R), mm/sec^2
M205 X8.00 Y8.00 Z0.40 E4.50 ; sets the jerk limits, mm/sec
M205 S0 T0 ; sets the minimum extruding and travel feed rate, mm/sec

; printing object cuboid_w-40.00_l-40.00_h-40.00_t-0.00.stl id:0 copy 0
; stop printing object cuboid_w-40.00_l-40.00_h-40.00_t-0.00.stl id:0 copy 0

;TYPE:Custom
M862.3 P "MK3S" ; printer model check
M862.1 P0.4 ; nozzle diameter check
M115 U3.14.1 ; tell printer latest fw version
G90 ; use absolute coordinates
M83 ; extruder relative mode
M104 S215 ; set extruder temp
M140 S60 ; set bed temp
M190 S60 ; wait for bed temp
M109 S215 ; wait for extruder temp
G28 W ; home all without mesh bed level
G80 X102.623 Y82.6229 W44.7542 H44.7542 ; mesh bed levelling

G1 Z0.2 F720
G1 Y-3 F1000 ; go outside print area
G92 E0
G1 X60 E9 F1000 ; intro line
G1 X100 E12.5 F1000 ; intro line

G92 E0
M221 S95

; Don't change E values below. Excessive value can damage the printer.

G21 ; set units to millimeters
G90 ; use absolute coordinates
M83 ; use relative distances for extrusion

M900 K0.05 ; Filament gcode LA 1.5
M900 K30 ; Filament gcode LA 1.0




M107
;LAYER_CHANGE
;Z:0.2
;HEIGHT:0.2
G1 E-.8 F2100
G1 Z.6 F720
G1 X103.202 Y83.752 F10800
G1 Z.2 F720
G1 E.8 F2100
M204 S800
;TYPE:Skirt/Brim
;WIDTH:0.42
G1 F1200
G1 X104.235 Y82.949 E.04102
G1 X105 Y82.811 E.02437
G1 X145 Y82.811 E1.25417
G1 X146.248 Y83.202 E.04101
G1 X147.051 Y84.235 E.04102
G1 X147.189 Y85 E.02437
G1 X147.189 Y125 E1.25417
G1 X146.798 Y126.248 E.04101
G1 X145.765 Y127.051 E.04102
G1 X145 Y127.189 E.02437
G1 X105 Y127.189 E1.25417
G1 X103.752 Y126.798 E.04101
G1 X102.949 Y125.765 E.04102
G1 X102.811 Y125 E.02437
G1 X102.811 Y85 E1.25417
G1 X103.184 Y83.809 E.03913
M204 S1000
;WIPE_START
G1 F8640
G1 X103.202 Y83.752 E-.0138
G1 X104.235 Y82.949 E-.30211
G1 X105 Y82.811 E-.17949
G1 X106.319 Y82.811 E-.3046
;WIPE_END
G1 Z.6 F720
; printing object cuboid_w-40.00_l-40.00_h-40.00_t-0.00.stl id:0 copy 0
G1 X143.082 Y123.082 F10800
G1 Z.2 F720
G1 E.8 F2100
M204 S800
;TYPE:Perimeter
;WIDTH:0.419999
G1 F1200
G1 X106.918 Y123.082 E1.13389
G1 X106.918 Y86.918 E1.13389
G1 X143.082 Y86.918 E1.13389
G1 X143.082 Y105 E.56695
G1 X143.082 Y123.022 E.56507
M204 S1000
G1 X143.459 Y123.459 F10800
M204 S800
G1 F1200
G1 X106.541 Y123.459 E1.15754
G1 X106.541 Y86.541 E1.15754
G1 X143.459 Y86.541 E1.15754
G1 X143.459 Y105 E.57877
M73 P0 R131
G1 X143.459 Y123.399 E.57689
M204 S1000
G1 X143.836 Y123.836 F10800
M204 S800
G1 F1200
G1 X106.164 Y123.836 E1.18118
G1 X106.164 Y86.164 E1.18118
G1 X143.836 Y86.164 E1.18118
G1 X143.836 Y105 E.59059
G1 X143.836 Y123.776 E.58871
M204 S1000
G1 X144.213 Y124.213 F10800
M204 S800
G1 F1200
G1 X105.787 Y124.213 E1.20482
G1 X105.787 Y85.787 E1.20482
G1 X144.213 Y85.787 E1.20482
G1 X144.213 Y105 E.60241
G1 X144.213 Y124.153 E.60053
M204 S1000
G1 X144.59 Y124.59 F10800
M204 S800
;TYPE:External perimeter
G1 F1200
G1 X105.41 Y124.59 E1.22846
G1 X105.41 Y85.41 E1.22846
G1 X144.59 Y85.41 E1.22846
G1 X144.59 Y105 E.61423
G1 X144.59 Y124.53 E.61235
M204 S1000
;WIPE_START
G1 F8640
G1 X144.59 Y124.59 E-.01385
G1 X141.185 Y124.59 E-.78615
;WIPE_END
G1 Z.6 F720
G1 X142.912 Y87.853 F10800
G1 Z.2 F720
G1 E.8 F2100
M204 S800
;TYPE:Solid infill
;WIDTH:0.421398
G1 F1200
G1 X142.316 Y87.258 E.0265
G1 X141.781 Y87.258 E.01684
G1 X142.742 Y88.219 E.04277
G1 X142.742 Y88.754 E.01684
G1 X141.246 Y87.258 E.06658
G1 X140.711 Y87.258 E.01684
G1 X142.742 Y89.289 E.09039
G1 X142.742 Y89.825 E.01687
G1 X140.175 Y87.258 E.11425
G1 X139.64 Y87.258 E.01684
G1 X142.742 Y90.36 E.13806
G1 X142.742 Y90.895 E.01684
G1 X139.105 Y87.258 E.16187
G1 X138.57 Y87.258 E.01684
G1 X142.742 Y91.43 E.18568
G1 X142.742 Y91.966 E.01687
G1 X138.034 Y87.258 E.20953
G1 X137.499 Y87.258 E.01684
G1 X142.742 Y92.501 E.23335
G1 X142.742 Y93.036 E.01684
G1 X136.964 Y87.258 E.25716
G1 X136.429 Y87.258 E.01684
G1 X142.742 Y93.571 E.28097
G1 X142.742 Y94.107 E.01687
G1 X135.893 Y87.258 E.30482
G1 X135.358 Y87.258 E.01684
M73 Q0 S145
G1 X142.742 Y94.642 E.32863
G1 X142.742 Y95.177 E.01684
G1 X134.823 Y87.258 E.35244
G1 X134.288 Y87.258 E.01684
G1 X142.742 Y95.712 E.37625
G1 X142.742 Y96.248 E.01687
G1 X133.752 Y87.258 E.40011
G1 X133.217 Y87.258 E.01684
G1 X142.742 Y96.783 E.42392
G1 X142.742 Y97.318 E.01684
G1 X132.682 Y87.258 E.44773
G1 X132.147 Y87.258 E.01684
G1 X142.742 Y97.853 E.47154
G1 X142.742 Y98.389 E.01687
G1 X131.611 Y87.258 E.4954
G1 X131.076 Y87.258 E.01684
G1 X142.742 Y98.924 E.51921
G1 X142.742 Y99.459 E.01684
G1 X130.541 Y87.258 E.54302
G1 X130.006 Y87.258 E.01684
G1 X142.742 Y99.994 E.56683
G1 X142.742 Y100.53 E.01687
G1 X129.47 Y87.258 E.59069
G1 X128.935 Y87.258 E.01684
G1 X142.742 Y101.065 E.6145
G1 X142.742 Y101.6 E.01684
G1 X128.4 Y87.258 E.63831
G1 X127.865 Y87.258 E.01684
G1 X142.742 Y102.135 E.66212
G1 X142.742 Y102.671 E.01687
G1 X127.329 Y87.258 E.68597
G1 X126.794 Y87.258 E.01684
G1 X142.742 Y103.206 E.70978
G1 X142.742 Y103.741 E.01684
G1 X126.259 Y87.258 E.73359
G1 X125.724 Y87.258 E.01684
G1 X142.742 Y104.276 E.75741
G1 X142.742 Y104.812 E.01687
G1 X125.188 Y87.258 E.78126
G1 X124.653 Y87.258 E.01684
G1 X142.742 Y105.347 E.80507
G1 X142.742 Y105.882 E.01684
G1 X124.118 Y87.258 E.82888
G1 X123.583 Y87.258 E.01684
M73 P1 R131
G1 X142.742 Y106.417 E.85269
G1 X142.742 Y106.953 E.01687
G1 X123.047 Y87.258 E.87655
G1 X122.512 Y87.258 E.01684
G1 X142.742 Y107.488 E.90036
G1 X142.742 Y108.023 E.01684
G1 X121.977 Y87.258 E.92417
G1 X121.442 Y87.258 E.01684
G1 X142.742 Y108.558 E.94798
G1 X142.742 Y109.094 E.01687
G1 X120.907 Y87.258 E.97181
G1 X120.371 Y87.258 E.01687
M73 Q1 S145
G1 X142.742 Y109.629 E.99565
G1 X142.742 Y110.164 E.01684
M73 P1 R130
G1 X119.836 Y87.258 E1.01946
G1 X119.301 Y87.258 E.01684
G1 X142.742 Y110.699 E1.04327
G1 X142.742 Y111.234 E.01684
G1 X118.766 Y87.258 E1.06708
G1 X118.23 Y87.258 E.01687
G1 X142.742 Y111.77 E1.09093
G1 X142.742 Y112.305 E.01684
G1 X117.695 Y87.258 E1.11474
G1 X117.16 Y87.258 E.01684
G1 X142.742 Y112.84 E1.13856
G1 X142.742 Y113.375 E.01684
G1 X116.625 Y87.258 E1.16237
G1 X116.089 Y87.258 E.01687
G1 X142.742 Y113.911 E1.18622
G1 X142.742 Y114.446 E.01684
G1 X115.554 Y87.258 E1.21003
G1 X115.019 Y87.258 E.01684
G1 X142.742 Y114.981 E1.23384
G1 X142.742 Y115.516 E.01684
G1 X114.484 Y87.258 E1.25765
G1 X113.948 Y87.258 E.01687
G1 X142.742 Y116.052 E1.28151
G1 X142.742 Y116.587 E.01684
G1 X113.413 Y87.258 E1.30532
G1 X112.878 Y87.258 E.01684
G1 X142.742 Y117.122 E1.32913
G1 X142.742 Y117.657 E.01684
G1 X112.343 Y87.258 E1.35294
G1 X111.807 Y87.258 E.01687
M73 Q1 S144
G1 X142.742 Y118.193 E1.3768
G1 X142.742 Y118.728 E.01684
G1 X111.272 Y87.258 E1.40061
G1 X110.737 Y87.258 E.01684
G1 X142.742 Y119.263 E1.42442
G1 X142.742 Y119.798 E.01684
G1 X110.202 Y87.258 E1.44823
G1 X109.666 Y87.258 E.01687
G1 X142.742 Y120.334 E1.47208
G1 X142.742 Y120.869 E.01684
G1 X109.131 Y87.258 E1.4959
G1 X108.596 Y87.258 E.01684
G1 X142.742 Y121.404 E1.51971
G1 X142.742 Y121.939 E.01684
G1 X108.061 Y87.258 E1.54352
G1 X107.525 Y87.258 E.01687
G1 X142.742 Y122.475 E1.56737
G1 X142.742 Y122.742 E.0084
G1 X142.475 Y122.742 E.0084
G1 X107.258 Y87.525 E1.56737
G1 X107.258 Y88.061 E.01687
G1 X141.939 Y122.742 E1.54352
G1 X141.404 Y122.742 E.01684
G1 X107.258 Y88.596 E1.51971
G1 X107.258 Y89.131 E.01684
G1 X140.869 Y122.742 E1.4959
G1 X140.334 Y122.742 E.01684
M73 P1 R129
G1 X107.258 Y89.666 E1.47208
G1 X107.258 Y90.202 E.01687
G1 X139.798 Y122.742 E1.44823
G1 X139.263 Y122.742 E.01684
G1 X107.258 Y90.737 E1.42442
G1 X107.258 Y91.272 E.01684
G1 X138.728 Y122.742 E1.40061
G1 X138.193 Y122.742 E.01684
M73 P2 R129
G1 X107.258 Y91.807 E1.3768
G1 X107.258 Y92.343 E.01687
G1 X137.657 Y122.742 E1.35294
G1 X137.122 Y122.742 E.01684
G1 X107.258 Y92.878 E1.32913
G1 X107.258 Y93.413 E.01684
G1 X136.587 Y122.742 E1.30532
G1 X136.052 Y122.742 E.01684
G1 X107.258 Y93.948 E1.28151
G1 X107.258 Y94.484 E.01687
G1 X135.516 Y122.742 E1.25765
G1 X134.981 Y122.742 E.01684
G1 X107.258 Y95.019 E1.23384
G1 X107.258 Y95.554 E.01684
G1 X134.446 Y122.742 E1.21003
G1 X133.911 Y122.742 E.01684
M73 Q2 S144
G1 X107.258 Y96.089 E1.18622
G1 X107.258 Y96.625 E.01687
M73 Q2 S143
G1 X133.375 Y122.742 E1.16237
G1 X132.84 Y122.742 E.01684
G1 X107.258 Y97.16 E1.13856
G1 X107.258 Y97.695 E.01684
G1 X132.305 Y122.742 E1.11474
G1 X131.77 Y122.742 E.01684
G1 X107.258 Y98.23 E1.09093
G1 X107.258 Y98.766 E.01687
G1 X131.234 Y122.742 E1.06708
G1 X130.699 Y122.742 E.01684
G1 X107.258 Y99.301 E1.04327
G1 X107.258 Y99.836 E.01684
G1 X130.164 Y122.742 E1.01946
G1 X129.629 Y122.742 E.01684
G1 X107.258 Y100.371 E.99565
G1 X107.258 Y100.907 E.01687
G1 X129.093 Y122.742 E.97179
G1 X128.558 Y122.742 E.01684
G1 X107.258 Y101.442 E.94798
G1 X107.258 Y101.977 E.01684
G1 X128.023 Y122.742 E.92417
G1 X127.488 Y122.742 E.01684
G1 X107.258 Y102.512 E.90036
G1 X107.258 Y103.048 E.01687
G1 X126.952 Y122.742 E.8765
G1 X126.417 Y122.742 E.01684
G1 X107.258 Y103.583 E.85269
G1 X107.258 Y104.118 E.01684
G1 X125.882 Y122.742 E.82888
G1 X125.347 Y122.742 E.01684
G1 X107.258 Y104.653 E.80507
G1 X107.258 Y105.189 E.01687
G1 X124.811 Y122.742 E.78122
G1 X124.276 Y122.742 E.01684
G1 X107.258 Y105.724 E.75741
G1 X107.258 Y106.259 E.01684
G1 X123.741 Y122.742 E.73359
G1 X123.206 Y122.742 E.01684
G1 X107.258 Y106.794 E.70978
G1 X107.258 Y107.33 E.01687
M73 P2 R128
G1 X122.67 Y122.742 E.68593
G1 X122.135 Y122.742 E.01684
G1 X107.258 Y107.865 E.66212
G1 X107.258 Y108.4 E.01684
G1 X121.6 Y122.742 E.63831
G1 X121.065 Y122.742 E.01684
G1 X107.258 Y108.935 E.6145
G1 X107.258 Y109.471 E.01687
G1 X120.529 Y122.742 E.59064
G1 X119.994 Y122.742 E.01684
G1 X107.258 Y110.006 E.56683
G1 X107.258 Y110.541 E.01684
G1 X119.459 Y122.742 E.54302
G1 X118.924 Y122.742 E.01684
G1 X107.258 Y111.076 E.51921
G1 X107.258 Y111.612 E.01687
G1 X118.388 Y122.742 E.49535
G1 X117.853 Y122.742 E.01684
G1 X107.258 Y112.147 E.47154
G1 X107.258 Y112.682 E.01684
G1 X117.318 Y122.742 E.44773
G1 X116.783 Y122.742 E.01684
G1 X107.258 Y113.217 E.42392
G1 X107.258 Y113.753 E.01687
G1 X116.247 Y122.742 E.40007
G1 X115.712 Y122.742 E.01684
G1 X107.258 Y114.288 E.37625
G1 X107.258 Y114.823 E.01684
G1 X115.177 Y122.742 E.35244
G1 X114.642 Y122.742 E.01684
G1 X107.258 Y115.358 E.32863
G1 X107.258 Y115.894 E.01687
G1 X114.106 Y122.742 E.30478
G1 X113.571 Y122.742 E.01684
G1 X107.258 Y116.429 E.28097
G1 X107.258 Y116.964 E.01684
G1 X113.036 Y122.742 E.25716
G1 X112.501 Y122.742 E.01684
G1 X107.258 Y117.499 E.23335
G1 X107.258 Y118.035 E.01687
G1 X111.965 Y122.742 E.20949
G1 X111.43 Y122.742 E.01684
G1 X107.258 Y118.57 E.18568
G1 X107.258 Y119.105 E.01684
G1 X110.895 Y122.742 E.16187
G1 X110.36 Y122.742 E.01684
G1 X107.258 Y119.64 E.13806
G1 X107.258 Y120.176 E.01687
G1 X109.824 Y122.742 E.1142
G1 X109.289 Y122.742 E.01684
G1 X107.258 Y120.711 E.09039
G1 X107.258 Y121.246 E.01684
G1 X108.754 Y122.742 E.06658
G1 X108.219 Y122.742 E.01684
G1 X107.258 Y121.781 E.04277
G1 X107.258 Y122.317 E.01687
G1 X107.853 Y122.912 E.02648
M204 S1000
M106 S84.15
;LAYER_CHANGE
;Z:0.4
;HEIGHT:0.2
;BEFORE_LAYER_CHANGE
G92 E0.0
;0.4


;WIPE_START
G1 F8640
G1 X107.258 Y122.317 E-.19429
G1 X107.258 Y121.781 E-.12376
G1 X108.219 Y122.742 E-.31381
G1 X108.754 Y122.742 E-.12353
G1 X108.617 Y122.605 E-.04461
;WIPE_END
G1 Z.4 F720
;AFTER_LAYER_CHANGE
;0.4
; stop printing object cuboid_w-40.00_l-40.00_h-40.00_t-0.00.stl id:0 copy 0
G1 Z.8
G1 X107.853 Y127.189 F10800
G1 Z.4 F720
G1 E.8 F2100
;TYPE:Skirt/Brim
;WIDTH:0.42
G1 F3000
G1 X105 Y127.189 E.08945
G1 X103.752 Y126.798 E.04101
G1 X102.949 Y125.765 E.04102
G1 X102.811 Y125 E.02437
G1 X102.811 Y85 E1.25417
G1 X103.202 Y83.752 E.04101
G1 X104.235 Y82.949 E.04102
G1 X105 Y82.811 E.02437
G1 X145 Y82.811 E1.25417
G1 X146.248 Y83.202 E.04101
G1 X147.051 Y84.235 E.04102
G1 X147.189 Y85 E.02437
G1 X147.189 Y125 E1.25417
G1 X146.798 Y126.248 E.04101
G1 X145.765 Y127.051 E.04102
G1 X145 Y127.189 E.02437
G1 X107.913 Y127.189 E1.16284
;WIPE_START
G1 F8640
G1 X107.853 Y127.189 E-.01385
G1 X105 Y127.189 E-.65877
G1 X104.473 Y127.024 E-.12738
;WIPE_END
G1 Z.8 F720
; printing object cuboid_w-40.00_l-40.00_h-40.00_t-0.00.stl id:0 copy 0
G1 X143.147 Y123.147 F10800
G1 Z.4 F720
G1 E.8 F2100
M204 S800
;TYPE:Perimeter
;WIDTH:0.449999
G1 F3586.876
G1 X106.853 Y123.147 E1.22851
G1 X106.853 Y86.853 E1.22851
G1 X143.147 Y86.853 E1.22851
G1 X143.147 Y123.087 E1.22648
M204 S1000
G1 X143.554 Y123.554 F10800
M204 S800
G1 F3579.708
G1 X106.446 Y123.554 E1.25606
G1 X106.446 Y86.446 E1.25606
G1 X143.554 Y86.446 E1.25606
G1 X143.554 Y123.494 E1.25403
M204 S1000
G1 X143.961 Y123.961 F10800
M204 S800
G1 F3573.401
G1 X106.039 Y123.961 E1.28361
G1 X106.039 Y86.039 E1.28361
G1 X143.961 Y86.039 E1.28361
M73 P3 R128
G1 X143.961 Y123.901 E1.28158
M73 Q2 S142
M204 S1000
G1 X144.368 Y124.368 F10800
M204 S800
G1 F3569.096
G1 X105.632 Y124.368 E1.31117
G1 X105.632 Y85.632 E1.31117
G1 X144.368 Y85.632 E1.31117
G1 X144.368 Y124.308 E1.30913
M204 S1000
G1 X144.775 Y124.775 F10800
M204 S800
;TYPE:External perimeter
G1 F1889.237
G1 X144.1 Y124.775 E.02285
G1 F2090.755
G1 X105.9 Y124.775 E1.29302
G1 F1896.982
G1 X105.225 Y124.775 E.02285
G1 F1889.237
G1 X105.225 Y124.1 E.02285
G1 F2090.734
G1 X105.225 Y85.9 E1.29302
G1 F1896.982
G1 X105.225 Y85.225 E.02285
G1 F1889.238
G1 X105.9 Y85.225 E.02285
G1 F2090.734
G1 X144.1 Y85.225 E1.29302
G1 F1896.982
G1 X144.775 Y85.225 E.02285
G1 F1889.238
G1 X144.775 Y85.9 E.02285
G1 F2090.734
G1 X144.775 Y124.1 E1.29302
G1 F1894.648
G1 X144.775 Y124.715 E.02082
M204 S1000
;WIPE_START
G1 F8640
G1 X144.775 Y124.775 E-.01385
G1 X144.1 Y124.775 E-.15586
G1 X141.37 Y124.775 E-.63029
;WIPE_END
G1 Z.8 F720
G1 X107.33 Y87.253 F10800
G1 Z.4 F720
G1 E.8 F2100
;TYPE:Solid infill
;WIDTH:0.548766
G1 F8895.988
G1 X107.285 Y87.208 E.00268
G1 X107.224 Y87.224 E.00265
G1 X107.208 Y87.285 E.00265
G1 X107.253 Y87.33 E.00268
G1 X107.314 Y87.314 E.00265
G1 X107.087 Y88.109 F10800
;WIDTH:0.38292
G1 F12000
G1 X107.016 Y88.09 E.00208
G1 X107.035 Y88.161 E.00208
G1 X107.076 Y88.15 E.0012
;WIDTH:0.41646
G1 X107.148 Y88.057 E.00365
;WIDTH:0.449999
G1 F11054.364
G1 X107.22 Y87.964 E.00398
G1 X107.964 Y87.22 E.03561
G1 X108.057 Y87.148 E.00398
;WIDTH:0.41646
G1 F12000
G1 X108.15 Y87.076 E.00365
;WIDTH:0.38292
G1 X108.109 Y87.087 E.0012
G1 X108.09 Y87.016 E.00208
G1 X108.161 Y87.035 E.00208
;WIDTH:0.449999
G1 F11054.364
G1 X108.54 Y87.22 E.01428
G1 X107.22 Y88.54 E.06319
G1 X107.22 Y89.115 E.01946
G1 X109.115 Y87.22 E.09071
G1 X109.691 Y87.22 E.0195
G1 X107.22 Y89.691 E.11829
G1 X107.22 Y90.267 E.0195
G1 X110.267 Y87.22 E.14586
G1 X110.842 Y87.22 E.01946
G1 X107.22 Y90.842 E.17338
G1 X107.22 Y91.418 E.0195
G1 X111.418 Y87.22 E.20096
G1 X111.994 Y87.22 E.0195
G1 X107.22 Y91.994 E.22853
G1 X107.22 Y92.57 E.0195
G1 X112.57 Y87.22 E.2561
G1 X113.145 Y87.22 E.01946
G1 X107.22 Y93.145 E.28363
G1 X107.22 Y93.721 E.0195
G1 X113.721 Y87.22 E.3112
G1 X114.297 Y87.22 E.0195
G1 X107.22 Y94.297 E.33877
G1 X107.22 Y94.872 E.01946
G1 X114.872 Y87.22 E.3663
G1 X115.448 Y87.22 E.0195
G1 X107.22 Y95.448 E.39387
G1 X107.22 Y96.024 E.0195
G1 X116.024 Y87.22 E.42144
G1 X116.599 Y87.22 E.01946
G1 X107.22 Y96.599 E.44897
G1 X107.22 Y97.175 E.0195
G1 X117.175 Y87.22 E.47654
G1 X117.751 Y87.22 E.0195
G1 X107.22 Y97.751 E.50411
G1 X107.22 Y98.327 E.0195
G1 X118.327 Y87.22 E.53169
G1 X118.902 Y87.22 E.01946
G1 X107.22 Y98.902 E.55921
G1 X107.22 Y99.478 E.0195
G1 X119.478 Y87.22 E.58678
G1 X120.054 Y87.22 E.0195
G1 X107.22 Y100.054 E.61436
G1 X107.22 Y100.629 E.01946
G1 X120.629 Y87.22 E.64188
G1 X121.205 Y87.22 E.0195
G1 X107.22 Y101.205 E.66945
G1 X107.22 Y101.781 E.0195
